X:12
T:John O'Connor
Z: id:dc-ocarolan-7
M:6/8
L:1/8
K:G Major
D|G2G FED|E2F G2A|B2G cBA|B2G cBA|!
Bcd EGE|FGA DFD|GFE DB,D|G3 G2:|!
B|ded def|g3 g3|cdB cdc|e3 e3|!
dcB c2A|Bcd D2D|EFG AFD|G3 G2:|!
A|BGE EGE|AFD DFD|EGE FAG|F3 D2c|!
Bcd dBG|cde ecA|GFE AFD|G3 G2:|!

